storage/app/icons/phosphoricons/fill/align-center-vertical-fill.svg

<svg xmlns="http://www.w3.org/2000/svg" fill="currentColor" viewBox="0 0 256 256"><path d="M232 128a8 8 0 0 1-8 8h-16v48a16 16 0 0 1-16 16h-40a16 16 0 0 1-16-16v-48h-16v72a16 16 0 0 1-16 16H64a16 16 0 0 1-16-16v-72H32a8 8 0 0 1 0-16h16V48a16 16 0 0 1 16-16h40a16 16 0 0 1 16 16v72h16V72a16 16 0 0 1 16-16h40a16 16 0 0 1 16 16v48h16a8 8 0 0 1 8 8"/></svg>

<svg xmlns="http://www.w3.org/2000/svg" viewBox="0 0 256 256" fill="currentColor"><path d="M232,128a8,8,0,0,1-8,8H208v48a16,16,0,0,1-16,16H152a16,16,0,0,1-16-16V136H120v72a16,16,0,0,1-16,16H64a16,16,0,0,1-16-16V136H32a8,8,0,0,1,0-16H48V48A16,16,0,0,1,64,32h40a16,16,0,0,1,16,16v72h16V72a16,16,0,0,1,16-16h40a16,16,0,0,1,16,16v48h16A8,8,0,0,1,232,128Z"/></svg>
